X: 23216
T: Leaky Spigot, The
R: reel
M: 4/4
K: Edorian
|:BEEF GFGA|BEEE d2cd|BEEF GFGA|1 BcdA FDD2:|2 B2AF BEE2||
(3Bcd efg2 eg|f2 df gfed|(3Bcd ef geaf|gedB AFD2|
(3Bcd efg2 eg|f2 df g2fg|afge fdBc|dBAF BEE2||

